icons/solid/logout.svg

<svg width="24" height="24" viewBox="0 0 24 24" fill="none" xmlns="http://www.w3.org/2000/svg">
<path fill-rule="evenodd" clip-rule="evenodd" d="M6 3C4.34315 3 3 4.34315 3 6V18C3 19.6569 4.34315 21 6 21H10C11.6569 21 13 19.6569 13 18V13H17.5858L15.2929 15.2929C14.9024 15.6834 14.9024 16.3166 15.2929 16.7071C15.6834 17.0976 16.3166 17.0976 16.7071 16.7071L20.7071 12.7071C21.0976 12.3166 21.0976 11.6834 20.7071 11.2929L16.7071 7.29289C16.3166 6.90237 15.6834 6.90237 15.2929 7.29289C14.9024 7.68342 14.9024 8.31658 15.2929 8.7071L17.5858 11H13V6C13 4.34315 11.6569 3 10 3H6ZM13 11H8C7.44771 11 7 11.4477 7 12C7 12.5523 7.44771 13 8 13H13V11Z" fill="currentColor"/>
</svg>

<svg width="24" height="24" fill="none" xmlns="http://www.w3.org/2000/svg"><path fill-rule="evenodd" clip-rule="evenodd" d="M6 3a3 3 0 00-3 3v12a3 3 0 003 3h4a3 3 0 003-3v-5h4.586l-2.293 2.293a1 1 0 001.414 1.414l4-4a1 1 0 000-1.414l-4-4a1 1 0 10-1.414 1.414L17.586 11H13V6a3 3 0 00-3-3H6zm7 8H8a1 1 0 100 2h5v-2z" fill="currentColor"/></svg>
